X:1
T:Title
%%score { ( 1 3 ) | 2 }
L:1/8
M:3/2
K:Ab
V:1 treble nm="Grand Piano"
V:3 treble 
V:2 treble 
V:1
 z4 z2[Q:1/4=128] E2 E2 A2 | A6 A2 G2 A2 | [EGB]6 [B,EG]2 [G,E]2 [B,EG]2 | %3
 [EGB]6 [EGB]2 [EA]2 [EGB]2 | [EAc]6 [CE]2 [CE]2 [CEA]2 | [EAc]6 [EAc]2 [EGB]2 [EA]2 | %6
 [FAd]6 [FAd]2 [EAc]2 [DFB]2 | A2 G2 c4 B4 | A6 [GB]2 [Ac]2 [GB]2 | [=DFB]6 [B,DF]2 [B,EG]2 [Ac]2 | %10
 [GB]6 [GB]2 [Ac]2 [GB]2 | [=DFB]6 [FA]2 .[DG]3 A, | E6 E2 E2 A2 | c6 c2 [EGB]2 [EA]2 | %14
 [FAd]6 [FAd]2 [EAc]2 [DFB]2 | A2 G2 c4 B4 |[M:3/4] A6 |] %17
V:2
 z4 z2 [A,C]2 [A,C]2 [A,CE]2 | [A,CE]6 [CE]2[K:bass] [B,DE]2 [A,CE]2 | E,6 E,2 E,2 E,2 | %3
 E,6 E,2 C,2 E,2 | A,6 A,2 A,2 A,2 | A,6 A,2 E,2 C,2 | D,6 D,2 D,2 D,2 | %7
 [E,CE]2 [E,B,E]2 [E,A,E]4 [E,DE]4 | [A,CE]6 [E,E]2 [E,E]2 [E,E]2 | B,,6 B,,2 E,2 [E,E]2 | %10
 [E,E]6 [E,E]2 [E,E]2 [E,E]2 | B,,6 [B,,B,]2 [B,,B,]2 .[B,,B,]2 | %12
 [E,G,]6[K:treble] [A,C]2 [A,C]2 [A,CE]2 | [A,EA]6 [A,EA]2[K:bass] E,2 C,2 | D,6 D,2 D,2 D,2 | %15
 [E,CE]2 [E,B,E]2 [E,A,E]4 [E,DE]4 |[M:3/4] [A,CE]6 |] %17
V:3
 x12 | x12 | x12 | x12 | x12 | x12 | x12 | x12 | x12 | x12 | x12 | z4 z4 z2 [=DF]2 | x12 | x12 | %14
 x12 | x12 |[M:3/4] x6 |] %17

